!!!COM: Gastoldi, Giovanni Giacomo
!!!CDT: ~1555-1622
!!!PTL: Il primo libro de madrigali a cinque voci
!!!PPP: Venice
!!!PPR: Amadino
!!!PDT: 1588
!!!PUB-format:
!!!RISM: G 547
!!!rime: 272
!!!OTL: Occhi leggiadri e belli,/Nel vostro dolce nero
!!!AGN: Madrigal
!!!SCT: Trm0272b
!!!SCA: Trm0272b
!!!original-voices: 5
!!!extant-voices: 5
!!!complete: Y
!!!final: C
**kern	**text	**kern	**text	**kern	**text	**kern	**text	**kern	**text
*part5	*part5	*part4	*part4	*part3	*part3	*part2	*part2	*part1	*part1
*staff5	*staff5	*staff4	*staff4	*staff3	*staff3	*staff2	*staff2	*staff1	*staff1
*Ivox	*	*Ivox	*	*Ivox	*	*Ivox	*	*Ivox	*
*I"Basso	*	*I"Tenore	*	*I"Alto	*	*I"Quinto	*	*I"Canto	*
*I'B	*	*I'T	*	*I'A	*	*I'V	*	*I'C	*
*oclefF3	*	*oclefC3	*	*oclefC2	*	*oclefG2	*	*oclefG2	*
*clefF4	*	*clefGv2	*	*clefG2	*	*clefG2	*	*clefG2	*
*k[]	*	*k[]	*	*k[]	*	*k[]	*	*k[]	*
*omet(C)	*	*omet(C)	*	*omet(C)	*	*omet(C)	*	*omet(C)	*
*M4/2	*	*M4/2	*	*M4/2	*	*M4/2	*	*M4/2	*
=1	=1	=1	=1	=1	=1	=1	=1	=1	=1
0r	.	2r	.	2r	.	1r	.	2.gg	Oc-
.	.	2.g	Oc-	2.b	Oc-	.	.	.	.
.	.	.	.	.	.	.	.	8ff	-chi
.	.	.	.	.	.	.	.	8ee	leg-
.	.	.	.	.	.	2r	.	2dd	-gia-
.	.	8f	-chi	8a	-chi	.	.	.	.
.	.	8e	leg-	8g	leg-	.	.	.	.
.	.	4d	-gia-	4a	-gia-	4r	.	4ff	-dri e
.	.	4c	-dri e	4cc	-dri e	[4gg	Oc-	[4ee	bel-
=2	=2	=2	=2	=2	=2	=2	=2	=2	=2
0r	.	1g	bel-	4b	bel-	4gg]	.	4ee]	.
.	.	.	.	2cc	.	8ff	-chi	8ddL	.
.	.	.	.	.	.	8ee	leg-	8ccJ	.
.	.	.	.	.	.	4dd	-gia-	4dd	.
.	.	.	.	4b	.	4dd	-dri e	4g	-li,
.	.	1c	-li,	2cc	-li,	2ee	bel-	4r	.
.	.	.	.	.	.	.	.	4gg	Nel
.	.	.	.	4r	.	2ee	-li,	4.gg	vo-
.	.	.	.	4cc	Nel	.	.	.	.
.	.	.	.	.	.	.	.	8ff	-stro
=3	=3	=3	=3	=3	=3	=3	=3	=3	=3
0r	.	1r	.	4cc	vo-	1r	.	4ee	dol-
.	.	.	.	4g	-stro	.	.	4gg	-ce
.	.	.	.	4a	dol-	.	.	2ff	ne-
.	.	.	.	4b	-ce	.	.	.	.
.	.	2r	.	1cc	ne-	4r	.	2ee	-ro
.	.	.	.	.	.	4gg	Nel	.	.
.	.	4r	.	.	.	4.gg	vo-	4r	.
.	.	4c	Nel	.	.	.	.	4ee	Nel
.	.	.	.	.	.	8ff	-stro	.	.
=4	=4	=4	=4	=4	=4	=4	=4	=4	=4
0r	.	4c	vo-	2g	-ro	4ee	dol-	4cc	vo-
.	.	4G	-stro	.	.	4gg	-ce	4b	-stro
.	.	4A	dol-	2r	.	2ff	ne-	4cc	dol-
.	.	4B	-ce	.	.	.	.	4dd	-ce
.	.	2c	ne-	4r	.	4ee	-ro	2g	ne-
.	.	.	.	4.c	Un	4.ee	Un	.	.
.	.	2c	-ro	.	.	.	.	2g	-ro
.	.	.	.	8d	fan-	8ff	fan-	.	.
.	.	.	.	4e	-ciul	4gg	-ciul	.	.
=5	=5	=5	=5	=5	=5	=5	=5	=5	=5
0r	.	4r	.	4d	di-	4ff#X	di-	4r	.
.	.	4.c	Un	4g	-ven-	4gg	-ven-	4.ee	Un
.	.	.	.	2c	-t&ograve;,	2ee	-t&ograve;,	.	.
.	.	8d	fan-	.	.	.	.	8ff	fan-
.	.	4e	-ciul	.	.	.	.	4gg	-ciul
.	.	4d	di-	4r	.	4r	.	4ff#X	di-
.	.	4g	-ven-	4.c	Un	4.ee	Un	4gg	-ven-
.	.	2c	-t&ograve;,	.	.	.	.	2ee	-t&ograve;,
.	.	.	.	8d	fan-	8ffni	fan-	.	.
.	.	.	.	4e	-ciul	4gg	-ciul	.	.
=6	=6	=6	=6	=6	=6	=6	=6	=6	=6
0r	.	4r	.	4d	di-	4ff#X	di-	4r	.
.	.	4.c	Un	4g	-ven-	4gg	-ven-	4.ee	<Un
.	.	.	.	2c	-t&ograve;,	2ee	-t&ograve;,	.	.
.	.	8d	fan-	.	.	.	.	8ffni	fan-
.	.	4e	-ciul	.	.	.	.	4gg	-ciul
.	.	4d	di-	2r	.	4r	.	4ff#X	di-
.	.	4g	-ven-	.	.	4b	scher-	4gg	-ven-
.	.	4c	-t&ograve;,	4r	.	4cc	-zan-	2ee	-t&ograve;,>
.	.	4e	scher-	4g	scher-	4b	-do,	.	.
=7	=7	=7	=7	=7	=7	=7	=7	=7	=7
0r	.	4f	-zan-	4a	-zan-	4r	.	4r	.
.	.	4e	-do,	4g	-do,	4cc	scher-	4ee	scher-
.	.	4r	.	4r	.	4dd	-zan-	4ffni	-zan-
.	.	4c	scher-	4e	scher-	8ccL	.	4ee	-do, ar-
.	.	.	.	.	.	8bJ	.	.	.
.	.	4d	-zan-	4f#X	-zan-	4a	.	8ddL	-cie-
.	.	.	.	.	.	.	.	8cc	.
.	.	4e	-do, ar-	4g	-do, ar-	4g	-do, ar-	8b	.
.	.	.	.	.	.	.	.	8ccJ	.
.	.	2d	-cie-	4g	-cie-	2a	-cie-	2dd	.
.	.	.	.	4f#X	.	.	.	.	.
=8	=8	=8	=8	=8	=8	=8	=8	=8	=8
4r	.	1G	-ro,	1g	-ro,	4b	-ro,	4dd	-ro,
2G	E	.	.	.	.	2dd	E	2b	E
4G	sa-	.	.	.	.	4dd	sa-	4b	sa-
8CL	-et-	4r	.	4r	.	4.gg	-et-	4.ee	-et-
8D	.	.	.	.	.	.	.	.	.
8E	.	2B	E	2g	E	.	.	.	.
8FJ	.	.	.	.	.	16ffL	.	16ddL	.
.	.	.	.	.	.	16eeJ	.	16ccJ	.
2G	.	.	.	.	.	8ddL	.	8bL	.
.	.	.	.	.	.	8ccJ	.	8aJ	.
.	.	4B	sa-	4g	sa-	4dd	.	4b	.
=9	=9	=9	=9	=9	=9	=9	=9	=9	=9
4A	-ta	4.e	-et-	8cL	-et-	2cc	-ta	4a	-ta
.	.	.	.	8d	.	.	.	.	.
4c	da	.	.	8e	.	.	.	4g	da
.	.	16dL	.	8fniJ	.	.	.	.	.
.	.	16cJ	.	.	.	.	.	.	.
2G	gio-	8BL	.	2g	.	4r	.	2dd	gio-
.	.	8AJ	.	.	.	.	.	.	.
.	.	4B	.	.	.	4dd	da	.	.
2C	-co	4A	-ta	4e	-ta	2ee	gio-	2cc	-co
.	.	4G	da	4g	da	.	.	.	.
4r	.	2d	gio-	4f#X	gio-	4a	-co	4r	.
[4G	E	.	.	4g	-co	[4b	E	[4dd	E
=10	=10	=10	=10	=10	=10	=10	=10	=10	=10
4G]	.	2d	-co	2r	.	4b]	.	4dd]	.
4G	sa-	.	.	.	.	4b	sa-	4dd	sa-
8CL	-et-	4r	.	4r	.	4.ee	-et-	4.gg	-et-
8D	.	.	.	.	.	.	.	.	.
8E	.	2B	E	2g	E	.	.	.	.
8FJ	.	.	.	.	.	16ddL	.	16ffL	.
.	.	.	.	.	.	16ccJ	.	16eeJ	.
2G	.	.	.	.	.	8bL	.	8ddL	.
.	.	.	.	.	.	8aJ	.	8ccJ	.
.	.	4B	sa-	4g	sa-	4b	.	4dd	.
4A	-ta	4.e	-et-	8cL	-et-	4a	-ta	2cc	-ta
.	.	.	.	8d	.	.	.	.	.
4c	da	.	.	8e	.	4g	da	.	.
.	.	16dL	.	8fniJ	.	.	.	.	.
.	.	16cJ	.	.	.	.	.	.	.
=11	=11	=11	=11	=11	=11	=11	=11	=11	=11
2G	gio-	8BL	.	2g	.	2dd	gio-	4r	.
.	.	8AJ	.	.	.	.	.	.	.
.	.	4B	.	.	.	.	.	4dd	da
2C	-co	4c	-ta	4e	-ta	2cc	-co	8eeL	gio-
.	.	.	.	.	.	.	.	8dd	.
.	.	4e	da	4g	da	.	.	8cc	.
.	.	.	.	.	.	.	.	8bJ	.
1r	.	4f#X	gio-	1d	gio-	1r	.	4a	.
.	.	2g	.	.	.	.	.	4g	.
.	.	.	.	.	.	.	.	2a	.
.	.	4f#X	.	.	.	.	.	.	.
=12	=12	=12	=12	=12	=12	=12	=12	=12	=12
2r	.	4g	-co	2G	-co	4r	.	1b	-co
.	.	4d	Mil-	.	.	2dd	Mil-	.	.
2G	Mil-	8gL	-l'al-	4r	.	.	.	.	.
.	.	8fni	.	.	.	.	.	.	.
.	.	8e	.	2g	Mil-	2gg	-l'al-	.	.
.	.	8dJ	.	.	.	.	.	.	.
2c	-l'al-	4e	.	.	.	.	.	4r	.
.	.	4e	-me e	2cc	-l'al-	2ee	-me e	4g	Mil-
2A	-me e	[2c	mil-	.	.	.	.	2cc	-l'al-
.	.	.	.	[4a	-me e	[4cc	mil-	.	.
=13	=13	=13	=13	=13	=13	=13	=13	=13	=13
2F	mil-	4c]	.	4a]	.	4cc]	.	2a	-me e
.	.	4A	-le	2f	mil-	4cc	-le	.	.
2D	-le	2A	co-	.	.	2.dd	co-	4.f	mil-
.	.	.	.	4d	-le	.	.	.	.
.	.	.	.	.	.	.	.	8g	-le
1AA	co-	[1A	-ri,	2e	co-	.	.	1a	co-
.	.	.	.	.	.	8cc#XL	.	.	.
.	.	.	.	.	.	8bJ	.	.	.
.	.	.	.	2e	-ri,	2cc#X	.	.	.
=14	=14	=14	=14	=14	=14	=14	=14	=14	=14
1D	-ri,	1A]	.	4r	.	1dd	-ri,	1f#X	-ri,
.	.	.	.	2d	E	.	.	.	.
.	.	.	.	4d	rin-	.	.	.	.
4r	.	1r	.	2d	-fre-	4r	.	4r	.
2G	E	.	.	.	.	2b	E	4g	E
.	.	.	.	4e	-sca	.	.	4g	rin-
4G	rin-	.	.	4d	gli ar-	4b	rin-	[4dd	-fre-
=15	=15	=15	=15	=15	=15	=15	=15	=15	=15
2G	-fre-	1r	.	8gL	-do-	2b	-fre-	8dd]	.
.	.	.	.	8f	.	.	.	8dd	-sca
.	.	.	.	8e	.	.	.	4gg	gli ar-
.	.	.	.	8dJ	.	.	.	.	.
4A	-sca	.	.	4c	.	4a	-sca	8eeL	-do-
.	.	.	.	.	.	.	.	8ff	.
4G	gli ar-	.	.	4d	.	4b	gli ar-	8gg	.
.	.	.	.	.	.	.	.	8ffJ	.
8cL	-do-	4c	E	8eL	.	1cc	-do-	8eeL	.
8B	.	.	.	8fJ	.	.	.	8dd	.
8A	.	4c	rin-	2g	.	.	.	8cc	.
8GJ	.	.	.	.	.	.	.	8bJ	.
2A	.	2c	-fre-	.	.	.	.	2a	.
.	.	.	.	4f#X	.	.	.	.	.
=16	=16	=16	=16	=16	=16	=16	=16	=16	=16
2G	-ri;	4e	-sca	2g	-ri;	2b	-ri;	2b	-ri;
.	.	4d	gli ar-	.	.	.	.	.	.
4C	E	8gL	-do-	4g	E	4cc	E	4ee	E
.	.	8f	.	.	.	.	.	.	.
4C	rin-	8e	.	4g	rin-	4cc	rin-	4ee	rin-
.	.	8dJ	.	.	.	.	.	.	.
2C	-fre-	2c	.	2g	-fre-	2cc	-fre-	2ee	-fre-
4E	-sca	2G	-ri;	4g	-sca	4b	-sca	4ee	-sca
4E	gli ar-	.	.	4g	gli ar-	4cc	gli ar-	4gg	gli ar-
=17	=17	=17	=17	=17	=17	=17	=17	=17	=17
2D	-do-	1r	.	2a	-do-	1dd	-do-	2ff#X	-do-
2G	-ri;	.	.	2b	-ri;	.	.	2gg	-ri;
1r	.	1g	E	4r	.	2b	-ri;	4r	.
.	.	.	.	4b	E	.	.	4dd	E
.	.	.	.	4b	non	2r	.	4dd	non
.	.	.	.	4g	gli	.	.	4b	gli
=18	=18	=18	=18	=18	=18	=18	=18	=18	=18
0r	.	1f	non	4.a	man-	1r	.	4.cc	man-
.	.	.	.	8g	-can	.	.	8dd	-can
.	.	.	.	4a	le	.	.	4cc	le
.	.	.	.	4b	sa-	.	.	4dd	sa-
.	.	1e	gli	4cc	-et-	4r	.	4.ee	-et-
.	.	.	.	8bL	.	4b	E	.	.
.	.	.	.	8aJ	.	.	.	8ff	.
.	.	.	.	4g	.	4b	non	2gg	.
.	.	.	.	4c	-te	4g	gli	.	.
=19	=19	=19	=19	=19	=19	=19	=19	=19	=19
0r	.	1d	man-	4r	.	4.a	man-	1ff	-te
.	.	.	.	4f	E	.	.	.	.
.	.	.	.	.	.	8g	-can	.	.
.	.	.	.	4f	non	4a	le	.	.
.	.	.	.	4d	gli	4b	sa-	.	.
.	.	1c	-can	4.e	man-	4.cc	-et-	4r	.
.	.	.	.	.	.	.	.	4cc	E
.	.	.	.	8f	-can	8dd	-te e'l	.	.
.	.	.	.	4e	le	4ee	fo-	4cc	non
.	.	.	.	4f	sa-	4cc	-co	4a	gli
=20	=20	=20	=20	=20	=20	=20	=20	=20	=20
0r	.	2G	le	4g	-et-	4r	.	4.b	man-
.	.	.	.	8fL	.	4dd	E	.	.
.	.	.	.	8eJ	.	.	.	8a	-can
.	.	2G	sa-	4d	.	4dd	non	4b	le
.	.	.	.	4g	-te e'l	4b	gli	4dd	sa-
.	.	2c	-et-	8gL	fo-	4.cc	man-	8eeL	-et-
.	.	.	.	8f	.	.	.	8ff	.
.	.	.	.	8e	.	.	.	8gg	.
.	.	.	.	8dJ	.	8dd	-can	8ffJ	.
.	.	2c	-te e'l	8eL	.	4cc	le	4ee	.
.	.	.	.	8f	.	.	.	.	.
.	.	.	.	8g	.	4b	sa-	4ee	-te e'l
.	.	.	.	8eJ	.	.	.	.	.
=21	=21	=21	=21	=21	=21	=21	=21	=21	=21
0r	.	1d	fo-	4f#X	.	4a	-et-	2dd	fo-
.	.	.	.	2g	.	4g	-ta e'l	.	.
.	.	.	.	.	.	2a	fo-	2dd	-co
.	.	.	.	4f#X	.	.	.	.	.
.	.	1G	-co	1g	-co	1b	-co	4r	.
.	.	.	.	.	.	.	.	4dd	E
.	.	.	.	.	.	.	.	4dd	non
.	.	.	.	.	.	.	.	4b	gli
=22	=22	=22	=22	=22	=22	=22	=22	=22	=22
1c	E	4r	.	4r	.	0r	.	4.cc	man-
.	.	4g	E	4e	E	.	.	.	.
.	.	.	.	.	.	.	.	8dd	-can
.	.	4g	non	4e	non	.	.	4cc	le
.	.	4e	gli	4c	gli	.	.	4ee	sa-
1B-	non	4.f	man-	4.d	man-	.	.	2dd	-et-
.	.	8g	-can	8c	-can	.	.	.	.
.	.	4f	le	4d	le	.	.	2dd	-te
.	.	4g	sa-	4e	sa-	.	.	.	.
=23	=23	=23	=23	=23	=23	=23	=23	=23	=23
1A	gli	4a	-et-	4f	-et-	4r	.	4r	.
.	.	8gL	.	8eL	.	4cc	E	4ee	<E
.	.	8fJ	.	8dJ	.	.	.	.	.
.	.	4e	.	4c	.	4cc	non	4ee	non
.	.	4f	-te e'l	4c	-te e'l	4a	gli	4cc	gli
1G	man-	2d	fo-	2g	fo-	4.b	man-	4.dd	man-
.	.	.	.	.	.	8a	-can	8cc	-can
.	.	2g	-co	2d	-co	4b	le	4dd	le
.	.	.	.	.	.	4cc	sa-	4ee	sa-
=24	=24	=24	=24	=24	=24	=24	=24	=24	=24
1F	-can	4r	.	4r	.	4dd	-et-	4ff	-et-
.	.	4a	E	4f	<E	8ccL	.	8eeL	.
.	.	.	.	.	.	8bJ	.	8ddJ	.
.	.	4a	non	4f	non	4a	.	4cc	.
.	.	4f	gli	4d	gli	4a	-te	4dd	-te>
2C	le	4.g	man-	4.e	man-	4r	.	4r	.
.	.	.	.	.	.	4ee	e'l	4gg	E
.	.	8f	.	8d	-can	.	.	.	.
2C	sa-	4g	.	4e	le	8eeL	fo-	4gg	non
.	.	.	.	.	.	8dd	.	.	.
.	.	4g	-can	4g	sa-	8cc	.	4ee	gli
.	.	.	.	.	.	8bJ	.	.	.
=25	=25	=25	=25	=25	=25	=25	=25	=25	=25
2F	-et-	2f	le	8aL	-et-	8ccL	.	4.ff	man-
.	.	.	.	8b	.	8b	.	.	.
.	.	.	.	8cc	.	8a	.	.	.
.	.	.	.	8bJ	.	8gJ	.	8gg	-can
2F	-te e'l	4c	sa-	4a	.	8aL	.	4ff	le
.	.	.	.	.	.	8b	.	.	.
.	.	2f	-et-	4a	-te e'l	8cc	.	4ff	sa-
.	.	.	.	.	.	8aJ	.	.	.
1G	fo-	.	.	1g	fo-	4b	.	4dd	-et-
.	.	4e	-te e'l	.	.	2cc	.	4cc	-te e'l
.	.	2d	fo-	.	.	.	.	2dd	fo-
.	.	.	.	.	.	4b	.	.	.
=26	=26	=26	=26	=26	=26	=26	=26	=26	=26
1C	-co	2c	-co	2g	-co>	1cc	-co	0ee	-co
.	.	4r	.	4r	.	.	.	.	.
.	.	4g	N&eacute;	4e	N&eacute;	.	.	.	.
2r	.	4e	gli	4c	gli	2r	.	.	.
.	.	4f	man-	4d	man-	.	.	.	.
4r	.	4g	-car	4e	-car	4r	.	.	.
4c	N&eacute;	4g	gi&agrave;	4e	gi&agrave;	4ee	N&eacute;	.	.
=27	=27	=27	=27	=27	=27	=27	=27	=27	=27
4A	gli	2a	ma-	2f	ma-	4cc	gli	2r	.
4B	man-	.	.	.	.	4dd	man-	.	.
4c	-car	2g	-i,	4e	-i,	4ee	-car	4r	.
4c	gi&agrave;	.	.	4g	N&eacute;	4ee	gi&agrave;	4cc	N&eacute;
2d	ma-	1r	.	4f	gli	2ff	ma-	4a	gli
.	.	.	.	4d	man-	.	.	4b	man-
2c	-i,	.	.	4e	-car	4ee	-i,	4cc	-car
.	.	.	.	4e	gi&agrave;	4gg	N&eacute;	4cc	gi&agrave;
=28	=28	=28	=28	=28	=28	=28	=28	=28	=28
0r	.	4r	.	4f	ma-	4ff	gli	2dd	ma-
.	.	4g	N&eacute;	4g	.	4dd	man-	.	.
.	.	4e	gli	2c	-i,	4ee	-car	2cc	-i,
.	.	4f	man-	.	.	4cc	N&eacute;	.	.
.	.	2.g	-car	1r	.	4.b	gli	4r	.
.	.	.	.	.	.	.	.	4dd	<N&eacute;
.	.	.	.	.	.	8cc	man-	.	.
.	.	.	.	.	.	4dd	-car	4b	gli
.	.	4e	gi&agrave;	.	.	4g	gi&agrave;	4cc	man-
=29	=29	=29	=29	=29	=29	=29	=29	=29	=29
1r	.	1d	ma-	1r	.	4a	ma-	4dd	-car
.	.	.	.	.	.	2g	.	4b	gi&agrave;
.	.	.	.	.	.	.	.	2a	ma-
.	.	.	.	.	.	4f#X	.	.	.
2r	.	1G	-i,	4r	.	2g	-i,	1b	-i,>
.	.	.	.	4d	Ch&eacute;	.	.	.	.
4r	.	.	.	4e	so-	4r	.	.	.
4G	Ch&eacute;	.	.	4d	-no	4b	Ch&eacute;	.	.
=30	=30	=30	=30	=30	=30	=30	=30	=30	=30
2A	so-	4r	.	8cL	stra-	2cc	so-	2r	.
.	.	.	.	8d	.	.	.	.	.
.	.	4c	Ch&eacute;	8e	.	.	.	.	.
.	.	.	.	8fJ	.	.	.	.	.
2G	-no	2.d	so-	4g	.	2b	-no	4r	.
.	.	.	.	4d	-li e	.	.	4g	Ch&eacute;
8FL	stra-	.	.	2f	fiam-	8aL	stra-	2a	so-
8G	.	.	.	.	.	8b	.	.	.
8A	.	4c	-no	.	.	8cc	.	.	.
8BJ	.	.	.	.	.	8ddJ	.	.	.
2c	.	8cL	stra-	2e	-me	[2ee	.	2g	-no
.	.	8d	.	.	.	.	.	.	.
.	.	8e	.	.	.	.	.	.	.
.	.	8fJ	.	.	.	.	.	.	.
=31	=31	=31	=31	=31	=31	=31	=31	=31	=31
4C	-li e	4g	.	1r	.	2ee]	.	8ccL	stra-
.	.	.	.	.	.	.	.	8dd	.
4.C	fiam-	4G	-li e	.	.	.	.	8ee	.
.	.	.	.	.	.	.	.	8ffJ	.
.	.	4.G	fiam-	.	.	2ee	-li e	4gg	.
8DL	.	.	.	.	.	.	.	.	.
8E	.	.	.	.	.	.	.	4g	-li e
8FJ	.	8A	.	.	.	.	.	.	.
2G	.	8BL	.	2r	.	8ddL	fiam-	8gL	fiam-
.	.	8cJ	.	.	.	8cc	.	8a	.
.	.	2d	.	.	.	8b	.	8b	.
.	.	.	.	.	.	8aJ	.	8ccJ	.
4G	-me i	.	.	2d	Ch&eacute;	2b	.	4.dd	.
[4G	vo-	4G	-me	.	.	.	.	.	.
.	.	.	.	.	.	.	.	8cc	-me i
=32	=32	=32	=32	=32	=32	=32	=32	=32	=32
4G]	.	0r	.	2e	so-	2g	-me	4b	vo-
4E	-stri	.	.	.	.	.	.	4g	-stri
4F	ra-	.	.	2d	-no	4r	.	4a	ra-
4G	.	.	.	.	.	4dd	Ch&eacute;	4b	.
2C	-i.	.	.	8cL	stra-	2ee	so-	4cc	-i.
.	.	.	.	8d	.	.	.	.	.
.	.	.	.	8e	.	.	.	4g	Ch&eacute;
.	.	.	.	8fJ	.	.	.	.	.
2r	.	.	.	4g	.	2dd	-no	2b	so-
.	.	.	.	4G	-li e	.	.	.	.
=33	=33	=33	=33	=33	=33	=33	=33	=33	=33
0r	.	0r	.	8AL	fiam-	8ccL	stra-	2a	-no
.	.	.	.	8B	.	8dd	.	.	.
.	.	.	.	8c	.	8ee	.	.	.
.	.	.	.	8dJ	.	8ffJ	.	.	.
.	.	.	.	2e	.	4gg	.	8gL	stra-
.	.	.	.	.	.	.	.	8a	.
.	.	.	.	.	.	4g	-li e	8b	.
.	.	.	.	.	.	.	.	8ccJ	.
.	.	.	.	4d	-me i	8aL	fiam-	4dd	.
.	.	.	.	.	.	8b	.	.	.
.	.	.	.	4.c	vo-	8cc	.	4g	-li e
.	.	.	.	.	.	8ddJ	.	.	.
.	.	.	.	.	.	2ee	.	4cc	fiam-
.	.	.	.	8dL	.	.	.	.	.
.	.	.	.	8e	.	.	.	8bL	.
.	.	.	.	8fJ	.	.	.	8aJ	.
=34	=34	=34	=34	=34	=34	=34	=34	=34	=34
0r	.	1r	.	2g	.	2dd	-me i	2b	.
.	.	.	.	2c	-stri	2.cc	vo-	4g	-me i
.	.	.	.	.	.	.	.	4a	vo-
.	.	2r	.	1d	ra-	.	.	4a	-stri
.	.	.	.	.	.	4b	-stri	2g	ra-
.	.	2d	Ch&eacute;	.	.	2a	ra-	.	.
.	.	.	.	.	.	.	.	4f#X	.
=35	=35	=35	=35	=35	=35	=35	=35	=35	=35
2r	.	2e	so-	1G	-i.	1g	-i.	2g	-i.
2G	Ch&eacute;	2d	-no	.	.	.	.	4r	.
.	.	.	.	.	.	.	.	4b	Ch&eacute;
2A	so-	8cL	stra-	2r	.	1r	.	2cc	so-
.	.	8d	.	.	.	.	.	.	.
.	.	8e	.	.	.	.	.	.	.
.	.	8fJ	.	.	.	.	.	.	.
2G	-no	4g	.	4r	.	.	.	2b	-no
.	.	4d	-li e	4g	Ch&eacute;	.	.	.	.
=36	=36	=36	=36	=36	=36	=36	=36	=36	=36
8FL	stra-	2f	fiam-	2a	so-	4r	.	8ccL	stra-
8G	.	.	.	.	.	.	.	8b	.
8A	.	.	.	.	.	4cc	Ch&eacute;	8cc	.
8BJ	.	.	.	.	.	.	.	8ddJ	.
4c	.	2e	-me i	2g	-no	2ee	so-	4.cc	.
4C	-li e	.	.	.	.	.	.	.	.
.	.	.	.	.	.	.	.	8b	.
8DL	fiam-	4f	vo-	8fL	stra-	2dd	-no	4a	.
8E	.	.	.	8g	.	.	.	.	.
8F	.	4f	-stri	8a	.	.	.	4a	-li e
8GJ	.	.	.	8bJ	.	.	.	.	.
2A	.	4e	ra-	4cc	.	8ccL	stra-	8aL	fiam-
.	.	.	.	.	.	8dd	.	8b	.
.	.	4A	-i.	4c	-li e	8ee	.	8cc	.
.	.	.	.	.	.	8ffJ	.	8aJ	.
=37	=37	=37	=37	=37	=37	=37	=37	=37	=37
4G	-me i	1r	.	8dL	fiam-	4gg	.	4b	.
.	.	.	.	8e	.	.	.	.	.
4.F	vo-	.	.	8f	.	4cc	-li e	4a	-me i
.	.	.	.	8gJ	.	.	.	.	.
.	.	.	.	2a	.	4ff	fiam-	2.cc	vo-
8GL	.	.	.	.	.	.	.	.	.
8A	.	.	.	.	.	8eeL	.	.	.
8BJ	.	.	.	.	.	8ddJ	.	.	.
2c	.	4r	.	2g	-me i	2ee	.	.	.
.	.	4c	i	.	.	.	.	4cc	-stri
2F	-stri	4c	vo-	[2f	vo-	4cc	-me i	2a	ra-
.	.	8BL	.	.	.	4dd	vo-	.	.
.	.	8AJ	.	.	.	.	.	.	.
=38	=38	=38	=38	=38	=38	=38	=38	=38	=38
1G	ra-	4B	.	4f]	.	4dd	-stri	0gl	-i.
.	.	4c	-stri	4e	-stri	2cc	ra-	.	.
.	.	2d	ra-	2d	ra-	.	.	.	.
.	.	.	.	.	.	4b	.	.	.
1Cl	-i.	1cl	-i.	1el	-i.	1ccl	-i.	.	.
==	==	==	==	==	==	==	==	==	==
*-	*-	*-	*-	*-	*-	*-	*-	*-	*-
!!!system-decoration: [*]
!!!RDF**kern: i = editorial accidental
!!!RDF**kern: l = terminal long
!!!ENC: Emiliano Ricciardi
!!!END: 2013
!!!EED: Ricciardi, Emiliano
!!!EEV: 2017/02/13
!!!YEC: Copyright 2013 Emiliano Ricciardi, All Rights Reserved
!!!ONB: Translated from MusicXML on 2013/08/19 and edited by Craig Stuart Sapp
!!@@BEGIN:	VERSEDATA
!!@SOLERTI:	272
!!@CATALOGNUM:	Trm0272
!!@LAST_MODIFIED: 2020/07/12
!!@TITLE:		Occhi leggiadri e belli,/Nel vostro dolce nero
!!@GENRE:		madrigale
!!@MANUSRC:	E<sub>2</sub>, V<sub>9</sub>
!!@PRINTSRC:	71, 141, 166, 169
!!@@BEGIN:	VERSES
!!@ABOUTIT:
!!@ABOUTEN:
!!@EDITOR:	Solerti, Angelo
!!@EDITION_TITLE: Le Rime di Torquato Tasso
!!@EDITION_LOC:	Bologna
!!@EDITION_PUB:	Romagnoli-Dall’Acqua
!!@EDITION_DATE:  1898-1902
!!@EDITION_VOL:	2
!!@EDITION_PAGE:  349
!!@TRANSLATOR:	Emiliano Ricciardi and Amyrose McCue Gill
!!@VERSE:
!!	Occhi leggiadri e belli,
!!	Nel vostro dolce nero
!!	Un fanciul diventò, scherzando, arciero,
!!	E saetta da gioco
!!	Mill'alme e mille cori,
!!	E rinfresca gli ardori;
!!	E non gli mancan le saette e 'l foco
!!	Né gli mancar giammai,
!!	Ché sono strali e fiamme i vostri rai.
!!@TVERSE:
!!	Graceful and beautiful eyes,
!!	In your sweet blackness
!!	A boy became, playfully, an archer,
!!	And strikes, in fun,
!!	A thousand souls and a thousand hearts,
!!	And stokes passions;
!!	And he does not lack arrows and fire,
!!	Nor did he ever lack them,
!!	For your eyes are bolts and flames.
!!@@END:		VERSES
!!@OTHER_CRIT_ED:   None
!!@ATTRIBUTION_ABOUT:	Secure
!!		<br>
!!		Among other sources (see Literary Sources), this poem appears in the authoritative manuscript It. 379a, Biblioteca Estense Universitaria, Modena.
!!@DATING:	Mid-1580s or earlier
!!@DEDICATEE:
!!@COMMENTARY:
!!@@END:		VERSEDATA
!!@@BEGIN:	SETTING
!!@CATALOGNUM:	Trm0272b
!!@RIMETITLE:	Occhi leggiadri e belli,/Nel vostro dolce nero
!!@SOLERTI:	272
!!@COMPOSER:	Gastoldi, Giovanni Giacomo
!!@PRINCEPSTITLE:	Il primo libro de madrigali a cinque voci
!!@PRINCEPSLOC:	Venetia
!!@NORMLOC:	Venice
!!@NORMPUB:	Amadino
!!@NORMPUBSHORT:	Amadino
!!@PRINCEPSPUB:	Amadino
!!@PRINCEPSYEAR:	1588
!!@PRINCEPSRISM:	G 547
!!@REPRINTS:	
!!@OVOICES:	5
!!@EXTANTVOICES:	5
!!@PARTBOOKS:	
!!@EXTPARTBOOKS:	
!!@OCLEFS:	G2,G2,C2,C3,F3
!!@OMENSURATION:	C
!!@OKEYSIG:	-
!!@FINAL:	C
!!@TIMPEDITOR:	Ricciardi, Emiliano
!!@NOTE:		
!!@@END:		SETTING
